X: 15038
T: George White's Favourite
R: reel
M: 4/4
K: Dmajor
dc|BF~F2 BFAF|EDEF DB,A,B,|DF~F2 DEFA|BFAF E2FA|
BF~F2 BFAF|EDEF DB,A,B,|DEFA dBAF|EDEF D2:|
zc|dBAB defe|~d3e dBAB|ABde fded|Beed e2de|
fdBd ~A3B|dBAB defe|d2dA BdAF|EDEF D2:|

